!!!COM:	Johannes Ockeghem
!!!CDT:	~1425-1497/02/06
!!!OPR:	Missa Ecce ancilla Domini
!!!ONM:	3
!!!OTL:	Credo
!!!AGN:	Mass; Credo
!!!SCT:	Ock1006c
!!!SCA:	Ock1006c
!!!voices:	4
!!!voices-OPR:	4
**kern	**kern	**kern	**kern
*staff4	*staff3	*staff2	*staff1
*Ivox	*Ivox	*Ivox	*Ivox
*I"Bassus	*I"Tenor	*I"Contratenor	*I"Discantus
*I'B	*I'T	*I'Ct	*I'D
*>[A,B]	*>[A,B]	*>[A,B]	*>[A,B]
*>A	*>A	*>A	*>A
*clefF4	*clefF4	*clefGv2	*clefG2
*k[b-]	*k[b-]	*k[b-]	*k[b-]
*M3/1	*M3/1	*M3/1	*M3/1
*met(O)	*met(O)	*met(O)	*met(O)
!!incipit:	5
!!section: Patrem
!!!OMD: Patrem
=1-	=1-	=1-	=1-
0.r	0.r	0c	1.g
.	.	.	1a
.	.	1c	.
.	.	.	4g/
.	.	.	4f/
=2	=2	=2	=2
0.r	0.r	1.c	1e
.	.	.	2.g/
.	.	1d	.
.	.	.	4f/
.	.	.	1d
.	.	4c\	.
.	.	4B-\	.
=3	=3	=3	=3
0.r	0.r	1A	1c
.	.	2.c\	1r
.	.	4B-\	.
.	.	1G	1g
=4	=4	=4	=4
0.r	0.r	1F	1a
.	.	1r	2b-\
.	.	.	2.cc\
.	.	1c	.
.	.	.	4b-\
.	.	.	2g/
=5	=5	=5	=5
0.r	0.r	1d	2f/
.	.	.	2a/
.	.	2e\	2g/
.	.	2.f\	2.a/
.	.	4e\	4g/
.	.	2c\	2e/
=6	=6	=6	=6
0.r	0.r	2B-\	2d/
.	.	2d\	2f/
.	.	2G/	1e
.	.	1A	.
.	.	.	2c/
.	.	2F/	2d/
=7	=7	=7	=7
0.r	0.r	2E/	4c/
.	.	.	4B-/
.	.	2F/	2A/
.	.	2C/	2G/
.	.	2E/	1c
.	.	1D	.
.	.	.	2Bni/
=8	=8	=8	=8
0.r	0.r	0.C	0c
.	.	.	1r
=9	=9	=9	=9
0.r	0.r	1r	1g
.	.	1r	1a
.	.	1G	2g/
.	.	.	[2e/
=10	=10	=10	=10
0.r	0.r	1A	2e/]
.	.	.	2f/
.	.	2G/	1g
.	.	2.E/	.
.	.	.	2c/
.	.	4F/	.
.	.	2G/	2B-/
=11	=11	=11	=11
0.r	0.r	2C/	2c/
.	.	2G/	2d/
.	.	2A/	2c/
.	.	2G/	2.g/
.	.	2.c\	.
.	.	.	4a/
.	.	.	2g/
.	.	4B-\	.
=12	=12	=12	=12
0.r	0.r	2.d\	2f/
.	.	.	2.a/
.	.	4c\	.
.	.	2c\	.
.	.	.	4g/
.	.	2A/	4f/
.	.	.	4e/
.	.	1B-	1d
=13	=13	=13	=13
0.r	0.r	1c	2r
.	.	.	1a
.	.	1.d	.
.	.	.	1b-
.	.	4c\	4a/
.	.	4B-\	4g/
=14	=14	=14	=14
0.r	0.r	2A/	2f/
.	.	1G	2g/
.	.	.	2b-i\
.	.	2c\	2a/
.	.	2B-\	2b-i\
.	.	2c\	[2a/
=15	=15	=15	=15
1r	0.r	2d\	2a/]
.	.	2B-\	1g
1r	.	1A	.
.	.	.	2f#i/
2r	.	1G	1g
2C/	.	.	.
=16	=16	=16	=16
2BB-/	0.r	2r	0.r
2C/	.	2G/	.
2D\	.	2F/	.
2BB-/	.	2G/	.
1AA	.	2A/	.
.	.	2F/	.
=17	=17	=17	=17
2GG/	0.r	1E	0.r
2C/	.	.	.
2D\	.	2D/	.
2E\	.	2G/	.
2F\	.	2A/	.
2D\	.	2B-\	.
=18	=18	=18	=18
1C	0.r	2c\	0.r
.	.	2A/	.
2r	.	1G	.
2G\	.	.	.
2F\	.	2r	.
2G\	.	2d\	.
=19	=19	=19	=19
2A\	0.r	2c\	0.r
2F\	.	2d\	.
2E\	.	2e\	.
1F	.	2c\	.
.	.	1d	.
2G\	.	.	.
=20	=20	=20	=20
2A\	0.r	2c\	0.r
1G	.	2B-\	.
.	.	1A	.
2F\	.	.	.
1G	.	1G	.
=21	=21	=21	=21
2F\	0.r	1r	0.r
2E\	.	.	.
1D	.	1F	.
1C	.	1E	.
=22	=22	=22	=22
1r	0.r	2A/	0.r
.	.	2A/	.
1BB-	.	4G/	.
.	.	2G/	.
.	.	8F/L	.
.	.	8E/J	.
1AA	.	2F/	.
.	.	2C/	.
=23	=23	=23	=23
2D\	0.r	1F	0.r
2D\	.	.	.
4C/	.	1E	.
2C/	.	.	.
8BB-/L	.	.	.
8AA/J	.	.	.
2BB-/	.	2r	.
2FF/	.	[2D/	.
=24	=24	=24	=24
1BB-	0.r	2D/]	0.r
.	.	2D/	.
1AA	.	2E/	.
.	.	2F/	.
2GG/	.	1G	.
2C/	.	.	.
=25	=25	=25	=25
2D\	0.r	2r	0.r
2E\	.	2G/	.
2.F\	.	2A/	.
.	.	2B-\	.
4D\	.	.	.
2E\	.	2.c\	.
2F\	.	.	.
.	.	4A/	.
=26	=26	=26	=26
2.G\	0.r	2B-\	0.r
.	.	2.d\	.
4F\	.	.	.
2D\	.	.	.
.	.	4c\	.
2.F\	.	2A/	.
.	.	2.c\	.
4E\	.	.	.
2C/	.	.	.
.	.	4B-\	.
=27	=27	=27	=27
1D	0.r	4A/	0.r
.	.	4G/	.
.	.	2B-\	.
2C/	.	2A/	.
2.F\	.	2F/	.
.	.	1G	.
4E\	.	.	.
[2E\	.	.	.
=28	=28	=28	=28
4E\]	0.r	1F	0.r
4D\	.	.	.
2.D\	.	.	.
.	.	1E	.
4C/	.	.	.
2.C/	.	.	.
.	.	1D	.
4BB-/	.	.	.
4BB-/	.	.	.
4GG/	.	.	.
=29	=29	=29	=29
2AA/	0.r	2C/	0.r
2GG/	.	2D/	.
2r	.	1E	.
1G	.	.	.
.	.	1D	.
2F\	.	.	.
=30	=30	=30	=30
2G\	0.r	1C	0.r
1A	.	.	.
.	.	1c	.
2F\	.	.	.
2G\	.	2B-\	.
2E\	.	2c\	.
=31	=31	=31	=31
2D\	0.r	2d\	0.r
2G\	.	2B-\	.
2E\	.	1c	.
1F	.	.	.
.	.	2A/	.
2E\	.	[2G/	.
=32	=32	=32	=32
1C	0.r	2G/]	0.r
.	.	2c\	.
2BB-/	.	2d\	.
2C/	.	2.e\	.
2AA/	.	.	.
.	.	4c\	.
[2GG/	.	2d\	.
=33	=33	=33	=33
2GG/]	0.r	2.e\	0.r
2.C/	.	.	.
.	.	4c\	.
.	.	2d\	.
4GG/	.	.	.
2C/	.	1c	.
1D	.	.	.
.	.	2Bni\	.
=34	=34	=34	=34
0.C	[0.G	1c	1e
.	.	1r	1e
.	.	1c	1e
=35	=35	=35	=35
1r	0.G]	1d	0g
0C	.	0e	.
.	.	.	1g
=36	=36	=36	=36
0.FF	0.F	1.f	1.a
.	.	4e\	1cc
.	.	4d\	.
.	.	[1c	.
.	.	.	2b-\
=37	=37	=37	=37
0.C	1E	2c\]	2.a/
.	.	2d\	.
.	.	.	4g/
.	0G	1e	2.g/
.	.	.	4f/
.	.	1c	1e
=38	=38	=38	=38
0GG	[0.G	1r	0d
.	.	1B-	.
1C	.	1c	1e
=39	=39	=39	=39
2BB-/	0.G]	2d\	2d/
1C	.	1e	2c/
.	.	.	2e/
2D\	.	1d	2f/
1E	.	.	1g
.	.	2c#i\	.
=40	=40	=40	=40
0D	[0.A	0d	1.f
.	.	.	1a
[1AA	.	1f	.
.	.	.	2b-\
=41	=41	=41	=41
1AA]	1A]	1e	1.cc
0BB-	0G	2.g\	.
.	.	.	4b-\
.	.	4f\	4a/
.	.	1d	1g
=42	=42	=42	=42
2.AA/	0.F	0.r	0.a
4BB-/	.	.	.
2C/	.	.	.
1D	.	.	.
4C/	.	.	.
4BB-/	.	.	.
=43	=43	=43	=43
1AA	1F	0.r	1r
2GG/	2G\	.	1b-
2BB-/	1G	.	.
1AA	.	.	1cc
.	2F#i\	.	.
=44	=44	=44	=44
0.GG	0.G	1d	2b-\
.	.	.	1b-
.	.	1d	.
.	.	.	2g/
.	.	1d	2.b-\
.	.	.	4cc\
=45	=45	=45	=45
1r	0.C	1e	2a/
.	.	.	2g/
1FF	.	1f	2f/
.	.	.	2.a/
1C	.	1e	.
.	.	.	4g/
.	.	.	2g/
=46	=46	=46	=46
1D	0.r	2d\	4f/
.	.	.	4d/
.	.	4c\	2f/
.	.	2B-\	.
2G\	.	.	2e/
.	.	4A/	.
2F\	.	2A/	4d/
.	.	.	2d/
1E	.	2.G/	.
.	.	.	4c#i/
.	.	.	4c#i/
.	.	4E/	4Bni/
=47	=47	=47	=47
0.D	1r	1F	1d
.	0BB-	2G/	1r
.	.	1G	.
.	.	.	1d
.	.	2F/	.
=48	=48	=48	=48
0.GG	[0.D	0G	1.B-
.	.	.	2c/
.	.	1r	1d
=49	=49	=49	=49
1r	0.D]	1A	1f
0GG	.	0B-	0g
=50	=50	=50	=50
0.FF	0.F	1c	1a
.	.	2d\	1a
.	.	2c\	.
.	.	[1f	1a
=51	=51	=51	=51
0FF	0F	2f\]	1.cc
.	.	2e\	.
.	.	1c	.
.	.	.	4b-\
.	.	.	4a/
1GG	1E	2r	1g
.	.	[2B-\	.
=52	=52	=52	=52
2.BB-/	1D	2B-\]	1f
.	.	1d	.
4AA/	.	.	.
0FF	1.F	.	2.a/
.	.	4c\	.
.	.	4B-\	4b-\
.	.	2.A/	[1cc
.	4E\	.	.
.	4D\	4B-\	.
=53	=53	=53	=53
2.AA/	1C	1.c	2cc\]
.	.	.	4b-\
4BB-/	.	.	4a/
1C	1C	.	1.g
.	.	4B-\	.
.	.	4A/	.
1r	2r	1G	.
.	[2C/	.	4f/
.	.	.	4e/
=54	=54	=54	=54
1GG	2C/]	2r	1d
.	2BBni/	1G	.
2G\	0C	.	1c
1.E	.	2A/	.
.	.	2G/	2r
.	.	2c\	[2g/
=55	=55	=55	=55
2D\	1D	2B-\	2g/]
2F\	.	2A/	2f/
2E\	1C	1c	0g
2C/	.	.	.
2BB-/	2r	2d\	.
2C/	[2C/	[2e\	.
=56	=56	=56	=56
2AA/	2C/]	2e\]	1a
2FF/	2AA/	2f\	.
2GG/	2BB-/	2d\	1g
2C/	2.C/	2.e\	.
2r	.	.	2r
.	4BB-/	4d\	.
2BB-/	2GG/	2d\	[2g/
=57	=57	=57	=57
1C	1AA	4c\	4g/]
.	.	2c\	4e/
.	.	.	2f/
.	.	4A/	.
2.G\	0GG	2.B-\	2e/
.	.	.	2.g/
4F\	.	4c\	.
2D\	.	2d\	.
.	.	.	4f/
2BB-/	.	[2G/	2d/
=58	=58	=58	=58
1C	0.r	4G/]	1e
.	.	4A/	.
.	.	2c\	.
0GG	.	2.B-\	1d
.	.	4G/	.
.	.	2.B-\	2r
.	.	.	2d/
.	.	4c\	.
=59	=59	=59	=59
0.r	0.r	4d\	2.f/
.	.	4e\	.
.	.	1f	.
.	.	.	4g/
.	.	.	4a/
.	.	.	4b-\
.	.	2e\	2.cc\
.	.	2.c\	.
.	.	.	4b-\
.	.	.	2g/
.	.	4d\	.
=60	=60	=60	=60
0.r	0.r	2f\	2a/
.	.	2e\	2cc\
.	.	2.d\	2b-\
.	.	.	2.a/
.	.	4c\	.
.	.	1c	.
.	.	.	4g/
.	.	.	[2g/
=61	=61	=61	=61
0.r	0.r	2B-\	2g/]
.	.	2A/	2f/
.	.	1G	2e/
.	.	.	2.d/
.	.	2F/	.
.	.	.	4c/
.	.	2G/	2B-/
=62	=62	=62	=62
1D	0.r	4A/	1A
.	.	2F/	.
.	.	4E/	.
2.E\	.	1G	1G
8D\L	.	.	.
8E\J	.	.	.
2F\	.	2A/	1r
2C/	.	[2c\	.
=63	=63	=63	=63
1D	1GG	2c\]	1d
.	.	2Bni\	.
2r	1C	1c	2e/
2C/	.	.	1g
2BB-/	2D\	1r	.
2D\	2F\	.	2f/
=64	=64	=64	=64
1C	4E\	1c	2g/
.	2E\	.	.
.	.	.	1a
.	4D\	.	.
1FF	1F	2d\	.
.	.	2f\	2f/
1C	1r	4e\	1g
.	.	2e\	.
.	.	4d\	.
=65	=65	=65	=65
2D\	0D	1f	2.f/
2BB-/	.	.	.
.	.	.	4g/
2r	.	2d\	2a/
2BB-/	.	2B-\	2b-\
1FF	1C	1c	4a/
.	.	.	2a/
.	.	.	4g/
=66	=66	=66	=66
0F	1BB-	1d	1b-
.	1r	2c\	2cc\
.	.	1f	2a/
1r	1C	.	1g
.	.	2e\	.
=67	=67	=67	=67
0.r	1D	1d	1f
.	2C/	1r	2e/
.	1F	.	2f/
.	.	1r	1g
.	2E\	.	.
=68	=68	=68	=68
0.r	2F\	0.r	2f/
.	1G	.	1e
.	2F\	.	1d
.	1E	.	.
.	.	.	2c/
=69	=69	=69	=69
0.r	1D	0.r	2d/
.	.	.	2.f/
.	1F	.	.
.	.	.	4e/
.	.	.	2.c/
.	2E\	.	.
.	.	.	4B-/
.	2C/	.	2c/
=70	=70	=70	=70
0.r	2BB-/	0.r	2d/
.	2C/	.	2c/
.	1D	.	2.f/
.	.	.	8e/L
.	.	.	8f/J
.	2GG/	.	2.g/
.	[2C/	.	.
.	.	.	4e/
=71	=71	=71	=71
0.r	2C/]	0G	4e/
.	.	.	4c/
.	2BB-/	.	2d/
.	1C	.	4e/
.	.	.	4c/
.	.	.	1c
.	1D	1F	.
.	.	.	2Bni/
=72	=72	=72	=72
1r	0C	0G	0c
1r	.	.	.
1GG	1r	2r	1r
.	.	[2G/	.
=73	=73	=73	=73
2.C/	0.r	4G/]	0.r
.	.	4A/	.
.	.	2B-\	.
4D\	.	.	.
2E\	.	2.c\	.
2.F\	.	.	.
.	.	4B-\	.
.	.	4A/	.
4E\	.	4G/	.
4D\	.	2F/	.
4C/	.	.	.
=74	=74	=74	=74
2BB-/	0.r	2G/	0.r
2C/	.	1A	.
1D	.	.	.
.	.	2B-\	.
2E-i\	.	1G	.
[2C/	.	.	.
=75	=75	=75	=75
2C/]	0.r	2.c\	0.r
2.F\	.	.	.
.	.	4B-\	.
.	.	2c\	.
4E\	.	.	.
2F\	.	1d	.
1G	.	.	.
.	.	2c\	.
=76	=76	=76	=76
2F\	0.r	0A	0.r
1D	.	.	.
2.F\	.	.	.
.	.	2.c\	.
4E\	.	.	.
[2C/	.	.	.
.	.	4B-\	.
=77	=77	=77	=77
4C/]	0.r	2G/	0.r
4BB-/	.	.	.
2.D\	.	2F/	.
.	.	2.A/	.
4C/	.	.	.
2AA/	.	.	.
.	.	4G/	.
2GG/	.	2E/	.
2D\	.	2D/	.
=78	=78	=78	=78
2.E\	0.r	2C/	0.r
.	.	2G/	.
4C/	.	.	.
2C/	.	4A/	.
.	.	2G/	.
4BB-/	.	.	.
4C/	.	4E/	.
4D\	.	4F/	.
2C/	.	4E/	.
.	.	2D/	.
4BBni/	.	.	.
=79	=79	=79	=79
1C	1r	1C	1r
2r	0GG	1r	0d
1BB-	.	.	.
.	.	1r	.
4AA/	.	.	.
4BB-/	.	.	.
=80	=80	=80	=80
2.C/	0.C	0.c	2e/
.	.	.	2f/
4D\	.	.	.
0E	.	.	1.g
.	.	.	[2a/
=81	=81	=81	=81
1F	1D	1A	2a/]
.	.	.	2b-\
2.C/	0E	0G	1cc
4AA/	.	.	.
1GG	.	.	2.b-\
.	.	.	4a/
=82	=82	=82	=82
0FF	0F	2.A/	0a
.	.	4B-\	.
.	.	1c	.
1r	1D	1d	1f
=83	=83	=83	=83
0.r	1C	1e	1.g
.	0BB-	1.d	.
.	.	.	2f/
.	.	.	1d
.	.	2B-\	.
=84	=84	=84	=84
0.r	1C	2A/	1c
.	.	1G	.
.	0D	.	2r
.	.	2c\	1f
.	.	2B-\	.
.	.	2A/	4e/
.	.	.	4d/
=85	=85	=85	=85
1G	0C	1c	2.e/
.	.	.	4f/
2E\	.	1r	2g/
2C/	.	.	1a
1D	1F	1d	.
.	.	.	2f/
=86	=86	=86	=86
1.C	1.E	1e	2.g/
.	.	.	4f/
.	.	2c\	4e/
.	.	.	4d/
2.D\	1.F	2B-\	1d
.	.	1A	.
4BB-/	.	.	.
2AA/	.	.	2c/
=87	=87	=87	=87
1GG	2.G\	2.B-\	2e/
.	.	.	2.d/
.	4F\	4c\	.
2BB-/	2D\	4d\	.
.	.	4e-i\	4B-/
2FF/	2F\	1d	2A/
1C	1E	.	1G
.	.	2c\	.
=88	=88	=88	=88
2r	1D	1.d	2A/
2.BB-/	.	.	2.B-/
.	1F	.	.
4AA/	.	.	4c/
2FF/	.	2.c\	2A/
1C	2E\	.	1G
.	.	4B-\	.
.	[2C/	4A/	.
.	.	4G/	.
=89	=89	=89	=89
2AA/	2C/]	2c\	1r
2GG/	2BB-/	1d	.
2r	1C	.	2g/
2G\	.	2c\	2e/
2F\	1D	2B-\	2f/
2D\	.	2A/	[2a/
=90	=90	=90	=90
2E\	1.C	2c\	4a/]
.	.	.	4g/
2C/	.	2G/	2e/
2r	.	2A/	2c/
2GG/	1.BB-	4G/	2d/
.	.	2G/	.
1GG	.	.	2r
.	.	8F/L	.
.	.	8E/J	.
.	.	2D/	2d/
=91	=91	=91	=91
2G\	2C/	2C/	2e/
2F\	2D\	2r	2f/
2E\	2E\	2c\	2g/
2D\	1F	1d	2a/
2BB-/	.	.	2b-\
2C/	2E\	[2c\	2g/
=92	=92	=92	=92
2FF/	2F\	4c\]	2a/
.	.	4d\	.
4GG/	2E\	2e\	4b-\
2AA/	.	.	2cc\
.	2C/	2f\	.
4BB-/	.	.	4b-\
2C/	2E\	4e\	2.g/
.	.	2c\	.
1GG	1D	.	.
.	.	4Bni\	4f/
.	.	4Bni\	2d/
.	.	4A/	.
=93	=93	=93	=93
0.Cl	0.Cl	0.cl	0.el
!!LO:LB:i:g=z
=94||	=94||	=94||	=94||
*>B	*>B	*>B	*>B
*clefF4	*clefF4	*clefGv2	*clefG2
*k[b-]	*k[b-]	*k[b-]	*k[b-]
*M2/1	*M2/1	*M2/1	*M2/1
*met(C|)	*met(C|)	*met(C|)	*met(C|)
!!section: Et resurrexit
!!!OMD: Et resurrexit
0r	0r	0r	0g
=95	=95	=95	=95
0r	0r	0r	0f
=96	=96	=96	=96
0r	0r	0c	1e
.	.	.	[1g
=97	=97	=97	=97
0r	0r	0B-	1g]
.	.	.	1g
=98	=98	=98	=98
0r	0r	1A	0a
.	.	[1c	.
=99	=99	=99	=99
0r	0r	1c]	1g
.	.	1c	1g
=100	=100	=100	=100
0r	0r	1.d	1.f
.	.	2c\	[2g/
=101	=101	=101	=101
0r	0r	1c	2g/]
.	.	.	2e/
.	.	1B-	1d
=102	=102	=102	=102
0r	0r	2A/	1c
.	.	1c	.
.	.	.	1r
.	.	2A/	.
=103	=103	=103	=103
0r	0r	1G	1e
.	.	1F	1f
=104	=104	=104	=104
0r	0r	1r	1f
.	.	1A	1e
=105	=105	=105	=105
0r	0r	1B-	2.d/
.	.	.	4e/
.	.	1B-	2f/
.	.	.	[2g/
=106	=106	=106	=106
0r	0r	1B-	4g/]
.	.	.	4f/
.	.	.	2d/
.	.	2A/	2c/
.	.	[2B-\	[2d/
=107	=107	=107	=107
0r	0r	2B-\]	2d/]
.	.	4A/	4c/
.	.	4G/	4B-/
.	.	2G/	2B-/
.	.	4F/	4A/
.	.	4E/	4G/
=108	=108	=108	=108
0r	0r	1F	1A
.	.	1G	1G
=109	=109	=109	=109
0r	0r	1B-	1d
.	.	1c	1e
=110	=110	=110	=110
0r	0r	1d	1f
.	.	1G	1g
=111	=111	=111	=111
0r	0r	1d	1r
.	.	1e	1g
=112	=112	=112	=112
0r	0r	1f	1a
.	.	1g	1b-
=113	=113	=113	=113
0r	0r	2e\	1cc
.	.	2f\	.
.	.	2g\	2b-\
.	.	[2f\	[2a/
=114	=114	=114	=114
0r	0r	2f\]	2a/]
.	.	2d\	4g/
.	.	.	4f/
.	.	4c\	2.e/
.	.	2c\	.
.	.	4B-\	4d/
=115	=115	=115	=115
0r	0r	2d\	2f/
.	.	1G	2d/
.	.	.	2e/
.	.	[2B-\	[2d/
=116	=116	=116	=116
0r	0r	4B-\]	4d/]
.	.	4A/	4c/
.	.	2F/	2A/
.	.	2A/	4c/
.	.	.	4d/
.	.	2G/	2e/
=117	=117	=117	=117
0r	0r	2D/	4f/
.	.	.	4d/
.	.	2F/	2.d/
.	.	1E	.
.	.	.	4c#i/
.	.	.	4c#i/
.	.	.	4Bni/
=118	=118	=118	=118
1r	0r	0D	0d
1GG	.	.	.
=119	=119	=119	=119
1BB-	0r	1r	0r
1BB-	.	1D	.
=120	=120	=120	=120
1C	0r	1E	0r
1C	.	1E	.
=121	=121	=121	=121
1D	0r	1F	0r
1D	.	1F	.
=122	=122	=122	=122
1E	0r	1G	0r
1E	.	1G	.
=123	=123	=123	=123
1D	0r	1A	0r
1F	.	1A	.
=124	=124	=124	=124
1G	0r	1B-	0r
1G	.	1B-	.
=125	=125	=125	=125
1F	0r	1A	0r
1D	.	1A	.
=126	=126	=126	=126
2E\	0r	1c	0r
2.F\	.	.	.
.	.	1c	.
4E\	.	.	.
4D\	.	.	.
4C/	.	.	.
=127	=127	=127	=127
1BB-	0r	1d	0r
1F	.	1d	.
=128	=128	=128	=128
2E\	0r	2c\	0r
2G\	.	2B-\	.
2F\	.	1A	.
[2D\	.	.	.
=129	=129	=129	=129
2D\]	0r	2B-\	0r
2.E-\	.	2.c\	.
4D\	.	4B-\	.
4C/	.	4A/	.
4BB-/	.	4G/	.
=130	=130	=130	=130
2AA/	0r	2F/	0r
2BB-/	.	2D/	.
2AA/	.	2C/	.
[2D\	.	2D/	.
=131	=131	=131	=131
2D\]	0r	1E	0r
2C/	.	.	.
2D\	.	1D	.
[2GG/	.	.	.
=132	=132	=132	=132
4GG/]	0r	2E/	0r
4EE/	.	.	.
2FF/	.	1D	.
2GG/	.	.	.
2r	.	[2G/	.
=133	=133	=133	=133
2GG/	0r	4G/]	0r
.	.	4E/	.
2AA/	.	2F/	.
2BB-/	.	1G	.
[2C/	.	.	.
=134	=134	=134	=134
4C/]	0r	2A/	0r
4AA/	.	.	.
2BB-/	.	1G	.
2C/	.	.	.
2r	.	[2c\	.
=135	=135	=135	=135
2C/	0r	4c\]	0r
.	.	4A/	.
2D\	.	2B-\	.
2E\	.	1c	.
[2F\	.	.	.
=136	=136	=136	=136
4F\]	0r	2d\	0r
4D\	.	.	.
2E\	.	1c	.
2F\	.	.	.
2r	.	[2f\	.
=137	=137	=137	=137
2F\	0r	4f\]	0r
.	.	4d\	.
2G\	.	2e\	.
2A\	.	2.f\	.
[2F\	.	.	.
.	.	4d\	.
=138	=138	=138	=138
2F\]	0r	4c\	0r
.	.	2f\	.
2A\	.	.	.
.	.	4g\	.
2.G\	.	2e\	.
.	.	[2d\	.
4F\	.	.	.
=139	=139	=139	=139
2E\	0r	4d\]	0r
.	.	4c\	.
2C/	.	1c	.
1D	.	.	.
.	.	2Bni\	.
=140	=140	=140	=140
0C	0G	1c	1e
.	.	1r	1e
=141	=141	=141	=141
0r	0F	1A	1f
.	.	1A	1f
=142	=142	=142	=142
0C	1E	1G	1g
.	[1G	1c	[1g
=143	=143	=143	=143
0BB-	1G]	1.d	2g/]
.	.	.	2f/
.	1G	.	1d
.	.	2e\	.
=144	=144	=144	=144
1AA	1.A	1f	0c
[1C	.	[1e	.
.	2G\	.	.
=145	=145	=145	=145
1C]	0G	2e\]	1e
.	.	2c\	.
1C	.	1c	1e
=146	=146	=146	=146
1.D	1.F	1A	1.f
.	.	1B-	.
2C/	[2G\	.	[2e/
=147	=147	=147	=147
1C	2G\]	1c	2e/]
.	2E\	.	2c/
1BB-	1D	1F	1d
=148	=148	=148	=148
2AA/	1C	1r	1.e
1C	.	.	.
.	1r	1c	.
2AA/	.	.	2f/
=149	=149	=149	=149
1GG	1BB-	1d	1g
1GG	2D\	1B-	1g
.	2E\	.	.
=150	=150	=150	=150
0FF	1F	2d\	1a
.	.	1c	.
.	1F	.	1f
.	.	2A/	.
=151	=151	=151	=151
1r	2E\	2c\	1g
.	1E	2B-\	.
1C	.	1G	2r
.	4D\	.	[2c/
.	4E\	.	.
=152	=152	=152	=152
1FF	1F	1A	2c/]
.	.	.	2f/
2EE/	1C	2G/	2g/
[2FF/	.	2F/	[2a/
=153	=153	=153	=153
2FF/]	1C	2A/	2a/]
2GG/	.	2B-\	2g/
1AA	1C	1c	1e
=154	=154	=154	=154
2.GG/	1.D	2.B-\	2r
.	.	.	2g/
4AA/	.	4c\	.
2BB-/	.	2d\	2f/
[2C/	[2C/	[2G/	[2e/
=155	=155	=155	=155
2C/]	2C/]	2G/]	2e/]
2D\	2BB-/	2B-\	2d/
1E	1C	2A/	4c/
.	.	.	2c/
.	.	2G/	.
.	.	.	8B-/L
.	.	.	8c/J
=156	=156	=156	=156
2.D\	1GG	1B-	0d
4E\	.	.	.
2F\	1r	2A/	.
2G\	.	[2G/	.
=157	=157	=157	=157
2E\	1r	2G/]	1c
2F\	.	1c	.
2.D\	1GG	.	1d
.	.	2B-\	.
4C/	.	.	.
=158	=158	=158	=158
2AA/	1.C	0c	1e
2C/	.	.	.
2FF/	.	.	1f
[2BB-/	[2D\	.	.
=159	=159	=159	=159
2BB-/]	2D\]	1r	0g
2AA/	1E	.	.
1GG	.	1B-	.
.	2D\	.	.
=160	=160	=160	=160
1FF	1F	2A/	1c
.	.	2F/	.
1C	2E\	1G	1r
.	2C/	.	.
=161	=161	=161	=161
2FF/	1D	1F	0r
2GG/	.	.	.
1AA	1C	1E	.
=162	=162	=162	=162
2r	1BB-	2F/	0r
2GG/	.	2.G/	.
4EE/	2C/	.	.
4FF/	.	4F/	.
2GG/	2BB-/	2D/	.
=163	=163	=163	=163
2AA/	2C/	2C/	0r
2FF/	2AA/	2c\	.
2r	2BB-/	2d\	.
2C/	2C/	2c\	.
=164	=164	=164	=164
4BB-/	1D	1f	0r
2BB-/	.	.	.
4AA/	.	.	.
2.C/	1C	2.e\	.
4D\	.	4f\	.
=165	=165	=165	=165
2E\	0r	2g\	0r
1F	.	2c\	.
.	.	2d\	.
2A\	.	[2f\	.
=166	=166	=166	=166
1G	0r	2f\]	1b-
.	.	2e\	.
2.F\	.	1f	2.a/
4D\	.	.	4b-\
=167	=167	=167	=167
2C/	0r	2e-\	2cc\
1BB-	.	2d\	2f/
.	.	1B-	2g/
2GG/	.	.	[2b-\
=168	=168	=168	=168
1FF	0r	1c	2b-\]
.	.	.	2a/
1r	.	2B-\	2b-\
.	.	2A/	2cc\
=169	=169	=169	=169
2.D\	0r	1F	2.a/
4C/	.	.	4f/
2E\	.	1c	2g/
[2F\	.	.	2c/
=170	=170	=170	=170
2F\]	0r	1A	2d/
2A\	.	.	1f
1G	.	1B-	.
.	.	.	2e/
=171	=171	=171	=171
1F	0r	2A/	2d/
.	.	2c\	2c/
2D\	.	2d\	2f/
2C/	.	2e\	2g/
=172	=172	=172	=172
2F\	0r	2.f\	2.a/
2G\	.	.	.
.	.	4e\	4g/
2.A\	.	[1c	2e/
.	.	.	2f/
4G\	.	.	.
=173	=173	=173	=173
2E\	0r	2c\]	2g/
2F\	.	2A/	2.c/
1G	.	1G	.
.	.	.	4A/
.	.	.	2B-/
=174	=174	=174	=174
2.C/	0r	0r	2c/
.	.	.	2e/
4AA/	.	.	.
2BB-/	.	.	2d/
2C/	.	.	2G/
=175	=175	=175	=175
2E\	0r	0r	2g/
2D\	.	.	2f/
2GG/	.	.	2d/
[2G\	.	.	[2e/
=176	=176	=176	=176
2G\]	0r	1r	4e/]
.	.	.	4d/
2F\	.	.	1d
1E	.	1G	.
.	.	.	2c#i/
=177	=177	=177	=177
0D	1r	1A	1d
.	1GG	1B-	1d
=178	=178	=178	=178
1r	1C	1c	1e
1D	1D	1A	1f
=179	=179	=179	=179
1C	0E	2c\	1.g
.	.	2B-\	.
1C	.	1G	.
.	.	.	2f/
=180	=180	=180	=180
1BB-	[0F	1B-	1d
2AA/	.	2c\	1r
[2BB-/	.	[2d\	.
=181	=181	=181	=181
2BB-/]	0F]	2d\]	1r
4AA/	.	4c\	.
4GG/	.	4B-\	.
1FF	.	1A	1c
=182	=182	=182	=182
0GG	1D	1G	2B-/
.	.	.	1d
.	1BB-	1B-	.
.	.	.	2e/
=183	=183	=183	=183
1FF	1C	1A	1f
1BB-	1r	1B-	[1f
=184	=184	=184	=184
1AA	0F	1c	2f/]
.	.	.	2e/
1BB-	.	1B-	1d
=185	=185	=185	=185
1C	1E	1G	1c
1BB-	1F	1B-	1d
=186	=186	=186	=186
1GG	1G	1.B-	1r
[1BB-	1F	.	[1d
.	.	2A/	.
=187	=187	=187	=187
2BB-/]	1D	1F	1d]
2AA/	.	.	.
1FF	[1F	1A	1c
=188	=188	=188	=188
2r	2F\]	1A	1f
2FF/	2E\	.	.
2EE/	[1C	2G/	2g/
[2FF/	.	[2A/	[2f/
=189	=189	=189	=189
2FF/]	1C]	2A/]	4f/]
.	.	.	4e/
2AA/	.	1F	2c/
1GG	1BB-	.	2d/
.	.	2E/	2B-/
=190	=190	=190	=190
1FF	1C	1F	1A
1r	2r	2.E/	1G
.	[2C/	.	.
.	.	4C/	.
=191	=191	=191	=191
0r	2C/]	1D	0g
.	2BB-/	.	.
.	1C	2C/	.
.	.	[2c\	.
=192	=192	=192	=192
0r	0D	2c\]	1f
.	.	2B-\	.
.	.	2B-\	1f
.	.	2A/	.
=193	=193	=193	=193
0G	0C	1.c	1.e
.	.	2A/	2c/
=194	=194	=194	=194
0E	1.C	1G	1g
.	.	1c	1a
.	2AA/	.	.
=195	=195	=195	=195
1D	1BB-	1d	1g
1C	1C	1e	2a/
.	.	.	[2cc\
=196	=196	=196	=196
0F	1r	1c	2cc\]
.	.	.	2b-\
.	1D	2d\	2b-\
.	.	[2f\	2a/
=197	=197	=197	=197
1.G	0C	2f\]	2.cc\
.	.	2e\	.
.	.	.	4b-\
.	.	2e\	1g
2E\	.	2d\	.
=198	=198	=198	=198
1D	1BB-	1f	1r
1C	1C	2e\	[1g
.	.	2c\	.
=199	=199	=199	=199
1BB-	1GG	1d	1g]
1C	1AA	1c	1e
=200	=200	=200	=200
0GG	0BB-	1r	2g/
.	.	.	2f/
.	.	1d	1d
=201	=201	=201	=201
1r	0C	1G	1e
1G	.	1c	1e
=202	=202	=202	=202
1F	0r	1d	1f
1E	.	1e	1g
=203	=203	=203	=203
1D	0r	1.f	1.a
[1F	.	.	.
.	.	2e\	2f/
=204	=204	=204	=204
2F\]	1F	1c	1a
2E\	.	.	.
1C	1E	1c	[1g
=205	=205	=205	=205
1.BB-	1D	1.d	2g/]
.	.	.	2f/
.	[1F	.	1d
2AA/	.	4c\	.
.	.	4B-\	.
=206	=206	=206	=206
1FF	2F\]	1A	1c
.	2E\	.	.
1r	[1C	1G	1e
=207	=207	=207	=207
0FF	1C]	1.c	2.f/
.	.	.	4g/
.	1F	.	1a
.	.	2A/	.
=208	=208	=208	=208
1GG	1E	1B-	2g/
.	.	.	1e
1AA	1A	1c	.
.	.	.	2f/
=209	=209	=209	=209
0BB-	2G\	1d	2.g/
.	1G	.	.
.	.	.	4f/
.	.	1B-	1d
.	4F\	.	.
.	4G\	.	.
=210	=210	=210	=210
1AA	0A	1r	1c
1C	.	1c	1e
=211	=211	=211	=211
1BB-	1r	1d	1f
[1GG	1D	1d	1g
=212	=212	=212	=212
1GG]	1E	1B-	1b-
[1FF	1F	2d\	[1a
.	.	2c\	.
=213	=213	=213	=213
0FF]	0A	2d\	2a/]
.	.	1f	2f/
.	.	.	2a/
.	.	2e\	[2cc\
=214	=214	=214	=214
0C	1G	0e	2cc\]
.	.	.	4b-\
.	.	.	4a/
.	[1E	.	1g
=215	=215	=215	=215
1AA	1E]	1c	0a
1FF	1F	[1d	.
=216	=216	=216	=216
0GG	0D	1d]	1r
.	.	1B-	1g
=217	=217	=217	=217
1FF	1F	1A	1.c
[1C	1E	[1G	.
.	.	.	2d/
=218	=218	=218	=218
1C]	0C	1G]	1e
1AA	.	1c	1f
=219	=219	=219	=219
0GG	0D	2B-\	2.g/
.	.	1B-	.
.	.	.	4f/
.	.	.	1d
.	.	2A/	.
=220	=220	=220	=220
1AA	0C	0c	1r
[1FF	.	.	[1a
=221	=221	=221	=221
0FF]	0F	1A	1a]
.	.	1F	1a
=222	=222	=222	=222
1EE	1BB-	1G	1b-
1FF	1F	2A/	2a/
.	.	2c\	[2a/
=223	=223	=223	=223
0r	1G	1B-	2a/]
.	.	.	2g/
.	1D	1A	2.a/
.	.	.	4b-\
=224	=224	=224	=224
1FF	1C	2r	1cc
.	.	2A/	.
2GG/	2G\	2B-\	2b-\
[2AA/	2F\	2c\	[2a/
=225	=225	=225	=225
2AA/]	1A	1d	2a/]
2BB-/	.	.	4g/
.	.	.	4f/
1C	2G\	1c	1e
.	2E\	.	.
=226	=226	=226	=226
1r	1D	2B-\	0r
.	.	1A	.
1FF	1r	.	.
.	.	4G/	.
.	.	4F/	.
=227	=227	=227	=227
1GG	0r	2E/	0r
.	.	1D	.
1BB-	.	.	.
.	.	[2G/	.
=228	=228	=228	=228
1AA	1r	2G/]	1c
.	.	2F/	.
[1GG	1D	[1G	2.B-/
.	.	.	4c/
=229	=229	=229	=229
1GG]	2BB-/	1G]	2d/
.	2C/	.	2e/
1r	2D\	1r	2d/
.	2E\	.	[2g/
=230	=230	=230	=230
0r	2D\	0r	4g/]
.	.	.	4f/
.	2G\	.	2d/
.	2F\	.	2f/
.	[2G\	.	[2e/
=231	=231	=231	=231
0r	2G\]	0r	2e/]
.	2D\	.	1d
.	1E	.	.
.	.	.	2c#i/
=232	=232	=232	=232
1r	0D	1r	1d
1BB-	.	1d	1f
=233	=233	=233	=233
2.C/	2.C/	1G	2.e/
4AA/	4D\	.	4c/
2GG/	2E\	2B-\	2g/
2FF/	2F\	4A/	2a/
.	.	[4c\	.
=234	=234	=234	=234
2.C/	2E\	4c\]	2g/
.	.	4B-\	.
.	2F\	2A/	2.cc\
4D\	.	.	.
1E	1C	1G	.
.	.	.	4b-\
.	.	.	2g/
=235	=235	=235	=235
2.F\	1FF	2r	1a
.	.	2F/	.
4E\	.	.	.
2C/	2C/	2G/	2.g/
[2D\	[2GG/	[2B-\	.
.	.	.	4f/
=236	=236	=236	=236
2D\]	2GG/]	4B-\]	2d/
.	.	4A/	.
2.C/	1G	1c	1e
4BB-/	.	.	.
2GG/	[2G\	2B-\	[2d/
=237	=237	=237	=237
1AA	4G\]	2.A/	4d/]
.	4E\	.	4c/
.	2F\	.	2A/
.	.	4F/	.
1GG	2G\	4E/	2B-/
.	.	4D/	.
.	2E\	[2G/	2G/
=238	=238	=238	=238
1r	1D	2G/]	1A
.	.	2F/	.
2.GG/	2r	2G/	2.B-/
.	2G\	[2B-\	.
4AA/	.	.	4c/
=239	=239	=239	=239
2BB-/	2.F\	4B-\]	2.d/
.	.	4c\	.
1BB-	.	2.d\	.
.	4E\	.	4e/
.	2D\	.	2f/
.	.	4B-\	.
2AA/	2C/	[2c\	[2f/
=240	=240	=240	=240
1FF	2.F\	2c\]	4f/]
.	.	.	4e/
.	.	2f\	2c/
.	4E\	.	.
1r	2C/	2e\	2g/
.	2D\	[2d\	2f/
=241	=241	=241	=241
2r	4BB-/	4d\]	2g/
.	2C/	4c\	.
1C	.	2A/	1c
.	4D\	.	.
.	2E\	2G/	.
2BB-/	2F\	2B-\	2d/
=242	=242	=242	=242
4AA/	2A\	2.c\	2.e/
2C/	.	.	.
.	1G	.	.
4BB-/	.	4d\	4f/
2GG/	.	2e\	2g/
2FF/	[2C/	2f\	2a/
=243	=243	=243	=243
1C	2C/]	4e\	2g/
.	.	4c\	.
.	2E\	1c	1a
1F	1D	.	.
.	.	2Bni\	4g/
.	.	.	4f/
=244	=244	=244	=244
1r	[0Cl	[0cl	2e/
.	.	.	2g/
[1FF	.	.	2f/
.	.	.	[2a/
=245	=245	=245	=245
1FF]	0C_	0c_	2a/]
.	.	.	4g/
.	.	.	4f/
1C	.	.	[1e
=246	=246	=246	=246
[0Cl	0C_	0c_	2e/]
.	.	.	2c/
.	.	.	2.e/
.	.	.	4f/
=247	=247	=247	=247
0C]	0C]	0c]	0gl
==	==	==	==
*-	*-	*-	*-
!!!RDF**kern: l=long note in original notation
!!!RDF**kern: i=editorial accidental
!!!RDF**kern: V=start of tuplet marker
!!!RDF**kern: Z=end of tuplet marker
!!!ENC:	Will Watson 12/09/2012
!!!END:	2012/09/17/
!!!EED:	Jesse Rodin
!!!EEV:	2012/09/17/
!!!ONB:	Translated from MusicXML and edited on 2012/09/17/ by Craig Sapp
!!muse2ps: T^@{OPR}^u^@{ONM}{. }@{OTL}^C^@{COM}^i2I150v85,85,85,100Q16
